X:131
M:3/4
L:1/8
K:D
f2f2A>d | f2f2A>d | f2g2(3faf | e4(3Bcd | e2e2(3Bcd | e2e2c>d | (3egef2e2 | d2d>ef>g | 
a2d'2c'2 | e4f2 | g2b2a2 | f4f2 | f2e2f2 | g4e>g | b2a2g2 | f2fefg | 
a2d'2c'2 | e4f2 | g2b2a2 | f4f2 | f2e2f2 | g4e>g | b2a2c2 | d4 :|| 

